X:203
T: ICH SEHE OFT UM MITTERNACHT
N: B0241
O: Europa, Mitteleuropa, Deutschland
R: Tageszeiten - Lied, Abend
M: 4/4
L: 1/8
K: G
D2 | G2A2B2c2 | d3cB2
A2 | G2F2G2B2 | A4z2
D2 | c3BA2A2 | d3cB2
D2 | E2cAG2F2 | G4z2

@@@ Tune index: 2006
